assets/cloud-upload.svg

<svg xmlns="http://www.w3.org/2000/svg" fill="none" viewBox="0 0 28 28">
  <path fill="#2A2238" fill-rule="evenodd" d="M14 0c-2.3096.00772522-4.54041.896252-6.2895 2.50507C6.37 3.73706 5.39875 5.3424 5.1485 6.95333 2.2155 7.644 0 10.3693 0 13.6603c0 3.8229 2.989 6.873 6.61675 6.873H10.5c.2321 0 .4546-.0983.6187-.2733.1641-.1751.2563-.4125.2563-.66 0-.2475-.0922-.4849-.2563-.66-.1641-.175-.3866-.2733-.6187-.2733H6.61675c-2.71425 0-4.86675-2.268-4.86675-5.0064 0-2.5499 1.862-4.69097 4.30675-4.97657l.77875-.09147V7.756c0-1.15174.693-2.61894 2.01775-3.836C10.2845 2.60294 12.1098 1.87472 14 1.86667c4.074 0 7.329 3.40666 7.3273 7.55066v.93337h.875c2.2627 0 4.0477 1.889 4.0477 4.1589 0 2.268-1.7868 4.1571-4.046 4.1571H17.5c-.2321 0-.4546.0983-.6187.2733-.1641.1751-.2563.4125-.2563.66 0 .2475.0922.4849.2563.66.1641.175.3866.2733.6187.2733h4.7023c3.1762 0 5.7977-2.6712 5.7977-6.0237 0-3.0539-2.1735-5.54214-4.9595-5.96214C22.6153 3.73333 18.7075 0 14 0Zm-.3353 7.53627c-.1063.04705-.2029.11601-.2842.20293l-5.24996 5.6c-.1643.1752-.25661.4129-.25661.6608 0 .2478.09231.4855.25661.6608.1643.1752.38714.2737.6195.2737.23236 0 .4552-.0985.6195-.2737l3.75546-4.0077v16.4136c0 .2475.0922.4849.2563.6599.1641.1751.3867.2734.6187.2734.2321 0 .4547-.0983.6188-.2734.1641-.175.2562-.4124.2562-.6599V10.6531l3.7555 4.0077c.1643.1752.3872.2737.6195.2737.2324 0 .4552-.0985.6195-.2737.1643-.1753.2566-.413.2566-.6608 0-.2479-.0923-.4856-.2566-.6608l-5.25-5.6c-.0812-.08692-.1778-.15588-.2841-.20293-.1063-.04705-.2203-.07127-.3354-.07127-.1151 0-.229.02422-.3353.07127Z" clip-rule="evenodd"/>
</svg>

<svg width="28" height="28" viewBox="0 0 28 28" fill="none" xmlns="http://www.w3.org/2000/svg">
<path fill-rule="evenodd" clip-rule="evenodd" d="M14 0C11.6904 0.00772522 9.45959 0.896252 7.7105 2.50507C6.37 3.73706 5.39875 5.3424 5.1485 6.95333C2.2155 7.644 0 10.3693 0 13.6603C0 17.4832 2.989 20.5333 6.61675 20.5333H10.5C10.7321 20.5333 10.9546 20.435 11.1187 20.26C11.2828 20.0849 11.375 19.8475 11.375 19.6C11.375 19.3525 11.2828 19.1151 11.1187 18.94C10.9546 18.765 10.7321 18.6667 10.5 18.6667H6.61675C3.9025 18.6667 1.75 16.3987 1.75 13.6603C1.75 11.1104 3.612 8.96933 6.05675 8.68373L6.8355 8.59226V7.756C6.8355 6.60426 7.5285 5.13706 8.85325 3.92C10.2845 2.60294 12.1098 1.87472 14 1.86667C18.074 1.86667 21.329 5.27333 21.3273 9.41733V10.3507H22.2023C24.465 10.3507 26.25 12.2397 26.25 14.5096C26.25 16.7776 24.4632 18.6667 22.204 18.6667H17.5C17.2679 18.6667 17.0454 18.765 16.8813 18.94C16.7172 19.1151 16.625 19.3525 16.625 19.6C16.625 19.8475 16.7172 20.0849 16.8813 20.26C17.0454 20.435 17.2679 20.5333 17.5 20.5333H22.2023C25.3785 20.5333 28 17.8621 28 14.5096C28 11.4557 25.8265 8.96746 23.0405 8.54746C22.6153 3.73333 18.7075 0 14 0ZM13.6647 7.53627C13.5584 7.58332 13.4618 7.65228 13.3805 7.7392L8.13054 13.3392C7.96624 13.5144 7.87393 13.7521 7.87393 14C7.87393 14.2478 7.96624 14.4855 8.13054 14.6608C8.29484 14.836 8.51768 14.9345 8.75004 14.9345C8.9824 14.9345 9.20524 14.836 9.36954 14.6608L13.125 10.6531V27.0667C13.125 27.3142 13.2172 27.5516 13.3813 27.7266C13.5454 27.9017 13.768 28 14 28C14.2321 28 14.4547 27.9017 14.6188 27.7266C14.7829 27.5516 14.875 27.3142 14.875 27.0667V10.6531L18.6305 14.6608C18.7948 14.836 19.0177 14.9345 19.25 14.9345C19.4824 14.9345 19.7052 14.836 19.8695 14.6608C20.0338 14.4855 20.1261 14.2478 20.1261 14C20.1261 13.7521 20.0338 13.5144 19.8695 13.3392L14.6195 7.7392C14.5383 7.65228 14.4417 7.58332 14.3354 7.53627C14.2291 7.48922 14.1151 7.465 14 7.465C13.8849 7.465 13.771 7.48922 13.6647 7.53627Z" fill="#2A2238"/>
</svg>
